X:6899
T:the Heroes of Salamanca
O:england
M:6/8
A:North-West
R:Jig
K:D
A/G/|\
F2F {A}GFG| AFD DFA| B^AB dcB| ABG FGE|\
F2F {A}GFG| AFD DFA| Bgf eac| d3 d2:|\
c/d/|:\
e2c Ace| f2d Adf| g2e f2d| {cd}e2c A2c/d/|\
{f}e2c Ace| {g}f2d Adf| efd cdB|1 ABG FGA :|2 ABG FGE|]


